X:356
T: Liebesschmerz (87), S. 231
N: T0245
O: Luxemburg
S: Singendes Volk, Esch-Alzette 1937 posth.]
N: Rodershausen, fff Lutgen, 1930,
N: mitgeteilt, hhh Josef Bour (Lehrer)
R: Liebeslieder]
M: 2/4
L: 1/16
K: F
C2 | F4F2G2 | A4A2A2 | G2B2A2G2 | F4z2
G2 | A2G2A2BB | c4c2c2 | B2d2c2B2 | A4z2
AB | c2A2d2cc | B2G2B2B2 | A2F2c2B2 | A4z2
C2 | F2G2A2B2 | c2f2d2B2 | c4c2B2 | A4z2

